svg/SJJB-OpenStreetMapIcons/place_of_worship/christian.svg

<?xml version="1.0" encoding="UTF-8" standalone="no"?>
<!-- Created with Inkscape (http://www.inkscape.org/) -->
<svg
   xmlns:dc="http://purl.org/dc/elements/1.1/"
   xmlns:cc="http://creativecommons.org/ns#"
   xmlns:rdf="http://www.w3.org/1999/02/22-rdf-syntax-ns#"
   xmlns:svg="http://www.w3.org/2000/svg"
   xmlns="http://www.w3.org/2000/svg"
   xmlns:sodipodi="http://sodipodi.sourceforge.net/DTD/sodipodi-0.dtd"
   xmlns:inkscape="http://www.inkscape.org/namespaces/inkscape"
   version="1.0"
   width="580"
   height="580"
   id="svg2"
   sodipodi:version="0.32"
   inkscape:version="0.46"
   sodipodi:docname="place_of_worship_christian.svg"
   sodipodi:docbase="s:\Data\FacilityIcons"
   inkscape:output_extension="org.inkscape.output.svg.inkscape">
  <metadata
     id="metadata2975">
    <rdf:RDF>
      <cc:Work
         rdf:about="">
        <dc:format>image/svg+xml</dc:format>
        <dc:type
           rdf:resource="http://purl.org/dc/dcmitype/StillImage" />
			  <cc:license
           rdf:resource="http://web.resource.org/cc/PublicDomain" />
        <dc:language>en</dc:language>
      </cc:Work>
    </rdf:RDF>
  </metadata>
  <sodipodi:namedview
     inkscape:window-height="1003"
     inkscape:window-width="1400"
     inkscape:pageshadow="2"
     inkscape:pageopacity="0.0"
     guidetolerance="10.0"
     gridtolerance="10.0"
     objecttolerance="10.0"
     borderopacity="1.0"
     bordercolor="#666666"
     pagecolor="#ffffff"
     id="base"
     inkscape:zoom="1.3034483"
     inkscape:cx="314.14947"
     inkscape:cy="329.43994"
     inkscape:window-x="0"
     inkscape:window-y="20"
     inkscape:current-layer="svg2"
     showgrid="false" />
  <defs
     id="defs4">
    <inkscape:perspective
       sodipodi:type="inkscape:persp3d"
       inkscape:vp_x="0 : 290 : 1"
       inkscape:vp_y="0 : 1000 : 0"
       inkscape:vp_z="580 : 290 : 1"
       inkscape:persp3d-origin="290 : 193.33333 : 1"
       id="perspective2441" />
    <inkscape:perspective
       id="perspective2466"
       inkscape:persp3d-origin="372.04724 : 350.78739 : 1"
       inkscape:vp_z="744.09448 : 526.18109 : 1"
       inkscape:vp_y="0 : 1000 : 0"
       inkscape:vp_x="0 : 526.18109 : 1"
       sodipodi:type="inkscape:persp3d" />
    <inkscape:perspective
       id="perspective3333"
       inkscape:persp3d-origin="372.04724 : 350.78739 : 1"
       inkscape:vp_z="744.09448 : 526.18109 : 1"
       inkscape:vp_y="0 : 1000 : 0"
       inkscape:vp_x="0 : 526.18109 : 1"
       sodipodi:type="inkscape:persp3d" />
    <inkscape:perspective
       id="perspective3401"
       inkscape:persp3d-origin="372.04724 : 350.78739 : 1"
       inkscape:vp_z="744.09448 : 526.18109 : 1"
       inkscape:vp_y="0 : 1000 : 0"
       inkscape:vp_x="0 : 526.18109 : 1"
       sodipodi:type="inkscape:persp3d" />
    <inkscape:perspective
       id="perspective3464"
       inkscape:persp3d-origin="372.04724 : 350.78739 : 1"
       inkscape:vp_z="744.09448 : 526.18109 : 1"
       inkscape:vp_y="0 : 1000 : 0"
       inkscape:vp_x="0 : 526.18109 : 1"
       sodipodi:type="inkscape:persp3d" />
    <inkscape:perspective
       id="perspective3581"
       inkscape:persp3d-origin="225 : 150 : 1"
       inkscape:vp_z="450 : 225 : 1"
       inkscape:vp_y="0 : 1000 : 0"
       inkscape:vp_x="0 : 225 : 1"
       sodipodi:type="inkscape:persp3d" />
  </defs>
  <g
     id="g1327">
    <path
       d="M 66.275,1.768 C 24.94,1.768 1.704,23.139 1.704,66.804 L 1.704,516.927 C 1.704,557.771 22.599,579.156 63.896,579.156 L 515.92,579.156 C 557.227,579.156 578.149,558.841 578.149,516.927 L 578.149,66.804 C 578.149,24.203 557.227,1.768 514.628,1.768 C 514.624,1.768 66.133,1.625 66.275,1.768 z "
       style="fill:#111;stroke:#eee;stroke-width:3.40799999"
       id="path1329" />
  </g>
  <path
     sodipodi:nodetypes="ccccccccccccccc"
     id="path1873"
     d="M 252.87907,338.30209 L 251.58366,187.28894 L 174.48428,186.77133 L 174.48428,147.45456 L 174.48428,110.13779 L 251.1406,108.74859 L 252.52983,24.092246 L 330.93978,22.722169 L 330.93978,108.87899 L 408.9853,108.87899 L 408.9853,147.45456 L 408.9853,186.03012 L 330.93978,186.03012 L 330.93978,340.05081 C 306.13967,337.1988 277.0394,344.69682 252.87907,338.30209 z"
     style="fill:#ffffff;fill-opacity:1" />
  <rect
     style="opacity:0.25;fill:#ffffff;fill-opacity:1;stroke:#ffffff;stroke-width:20.13593864;stroke-linecap:round;stroke-linejoin:round;stroke-miterlimit:4;stroke-dasharray:none;stroke-dashoffset:0;stroke-opacity:1"
     id="rect3585"
     width="168.92059"
     height="168.92059"
     x="207.05904"
     y="373.00064"
     ry="0" />
  <rect
     ry="0"
     y="373.00064"
     x="207.05904"
     height="168.92059"
     width="168.92059"
     id="rect3587"
     style="fill:none;fill-opacity:1;stroke:#ffffff;stroke-width:20.13593864;stroke-linecap:round;stroke-linejoin:round;stroke-miterlimit:4;stroke-dasharray:none;stroke-dashoffset:0;stroke-opacity:1" />
  <path
     style="fill:#ffffff;fill-opacity:1"
     d="M 330.59051,338.30209 L 331.88592,187.28894 L 408.9853,186.77133 L 408.9853,147.45456 L 408.9853,110.13779 L 332.32898,108.74859 L 330.93975,24.092246 L 252.5298,22.722169 L 252.5298,108.87899 L 174.48428,108.87899 L 174.48428,147.45456 L 174.48428,186.03012 L 252.5298,186.03012 L 252.5298,340.05081 C 277.32991,337.1988 306.43018,344.69682 330.59051,338.30209 z"
     id="path4237"
     sodipodi:nodetypes="ccccccccccccccc" />
</svg>

<svg xmlns="http://www.w3.org/2000/svg" viewBox="0 0 580 580"><path d="m66.28 1.768c-41.34 0-64.57 21.371-64.57 65.04v450.12c0 40.844 20.895 62.23 62.19 62.23h452.02c41.31 0 62.23-20.315 62.23-62.23v-450.12c0-42.601-20.922-65.04-63.52-65.04-.004 0-448.5-.143-448.35 0z" fill="#111" stroke="#eee" stroke-width="3.408"/><g fill="#fff"><path d="m252.88 338.3l-1.295-151.01-77.1-.518v-39.32-37.32l76.66-1.389 1.389-84.66 78.41-1.37v86.16h78.05v38.576 38.576h-78.05v154.02c-24.8-2.852-53.9 4.646-78.06-1.749"/><path opacity=".25" stroke="#fff" stroke-linejoin="round" stroke-linecap="round" stroke-width="20.14" d="m207.06 373h168.92v168.92h-168.92z"/></g><path fill="none" stroke="#fff" stroke-linejoin="round" stroke-linecap="round" stroke-width="20.14" d="m207.06 373h168.92v168.92h-168.92z"/><path d="m330.59 338.3l1.295-151.01 77.1-.518v-39.32-37.32l-76.66-1.389-1.389-84.66-78.41-1.37v86.16h-78.05v38.576 38.576h78.05v154.02c24.8-2.852 53.9 4.646 78.06-1.749" fill="#fff"/></svg>
